X:1
T:White Collar Holler
M:2/2
L:1/8
K:G
 _B_B _B-| _BB BB GG ED| GE G_B-B B2 B-| _BB GE G2 ED| GE G E- D2 z A|\
 _BB GE GG GE| GE G _B- =B2 z ^c| d2 dd d2 d2| dG _BB-B GA B-| _B2 G4 ED|\
 G B2 z B2 z E| GG G E- D2 z2| _BB BB BA GG|_B-A G=B-B d2 d-|
M:3/2
 dd eB dd eB d_B-A G-|
M:2/2
 G8|

